X:0740
T:Lady Cunningham's Strathspey.
M:C
L:1/8
Q:1/4=120
I: :: ||
Z:Jack Campin * www.campin.me.uk * 2009
K:D
f/e/ | dD D>F   A>B Af |   e>f       g/f/e/d/ ce ef/e/ |\
       dD D>F   A>B cg |{g}f>a    {g}fe/d/    Add     :|
f/g/ | a>bad    d'c'ba |   ga/b/     a/f/e/d/ ce ef/g/ |\
       a>baf    d'c'ba |   bc'/d'/   a/f/e/d/ Add
f/>g/|.a.f.dd' .b.g.ee'|{g}f/e/f/d'/ a/f/e/d/ ce ef/>g/|\
  {fg}.a.g.f.e .d.c.B.A|   B//c//d3/ A>F      Ddd     |]

